packages/ui-icons/src/Service-logos/24/Amediateka.svg

<?xml version="1.0" encoding="UTF-8"?>
<svg viewBox="0 0 32 32" version="1.1" xmlns="http://www.w3.org/2000/svg" xmlns:xlink="http://www.w3.org/1999/xlink">
    <!-- Generator: Sketch 48.2 (47327) - http://www.bohemiancoding.com/sketch -->
    <title>logo/24/amediateka</title>
    <desc>Created with Sketch.</desc>
    <defs></defs>
    <g id="Icons" stroke="none" stroke-width="1" fill="none" fill-rule="evenodd">
        <g id="logo/24/amediateka">
            <circle id="Oval-3" fill="#333333" cx="16" cy="16" r="12"></circle>
            <path d="M20.7881773,18.6784141 C20.7881773,18.6784141 20.7586207,18.592511 20.6995074,18.3920705 C20.6403941,18.19163 20.4334975,18.1343612 20.3152709,18.0770925 C20.1970443,18.0198238 20.137931,17.8480176 20.226601,17.7907489 C20.4334975,17.6475771 20.6699507,17.5330396 20.9064039,17.4471366 C21.4679803,17.1894273 20.729064,17.0748899 20.3743842,16.845815 C20.1970443,16.7312775 20.0492611,16.5881057 19.9605911,16.3876652 C19.9605911,16.3590308 19.9310345,16.3590308 19.9310345,16.3303965 L17.270936,9 L14.729064,9 L12.0689655,16.2731278 L12.0394089,16.3303965 C12.0394089,16.3303965 11.862069,16.7312775 12.0689655,16.9030837 C12.2758621,17.0748899 12.6305419,17.2180617 12.0394089,17.4757709 C11.4482759,17.7334802 11.270936,17.8193833 11.182266,17.876652 C11.0935961,17.9339207 11.0344828,18.0770925 11.2118227,18.1057269 C11.3891626,18.1343612 11.3596059,18.3061674 11.3004926,18.4779736 L11.182266,18.7356828 L10,21.9713656 L12.5418719,21.9713656 L13.7241379,18.7070485 L13.8423645,18.4493392 C13.9014778,18.277533 13.9014778,18.1057269 13.7536946,18.0770925 C13.6059113,18.0484581 13.635468,17.9052863 13.7241379,17.8480176 C13.8128079,17.7907489 14.0492611,17.7048458 14.6108374,17.4471366 C15.1724138,17.1894273 14.817734,16.9889868 14.6403941,16.8744493 C14.4630542,16.7599119 14.6108374,16.3017621 14.6108374,16.3017621 L16,12.4647577 L17.4778325,16.530837 L15.320197,16.530837 C15.2906404,16.6453744 15.320197,16.7885463 15.4384236,16.8744493 C15.6157635,17.0176211 16,17.1894273 15.408867,17.4471366 C14.817734,17.7048458 14.6108374,17.7907489 14.5221675,17.8480176 C14.4334975,17.9052863 14.3743842,18.0484581 14.5517241,18.0770925 C14.729064,18.1057269 14.6995074,18.277533 14.6403941,18.4493392 C14.5812808,18.6211454 14.4926108,18.8502203 14.4926108,18.8502203 L14.4926108,18.8788546 L18.3349754,18.8788546 L19.4581281,22 L22,22 L20.817734,18.7356828 L20.7881773,18.6784141 Z" id="Shape" fill="#FFFFFF" fill-rule="nonzero"></path>
        </g>
    </g>
</svg>

<svg viewBox="0 0 32 32" xmlns="http://www.w3.org/2000/svg"><g fill="none" fill-rule="evenodd"><circle fill="#333" cx="16" cy="16" r="12"/><path d="M20.788 18.678s-.03-.085-.088-.286c-.06-.2-.267-.258-.385-.315-.118-.057-.177-.229-.088-.286.206-.143.443-.258.68-.344.561-.258-.178-.372-.533-.601a1.053 1.053 0 0 1-.413-.458c0-.029-.03-.029-.03-.058L17.271 9h-2.542l-2.66 7.273-.03.057s-.177.401.03.573c.207.172.562.315-.03.573-.59.257-.768.343-.857.4-.088.058-.148.201.03.23.177.028.148.2.088.372l-.118.258L10 21.97h2.542l1.182-3.264.118-.258c.06-.171.06-.343-.088-.372-.148-.029-.119-.172-.03-.229.089-.057.325-.143.887-.4.561-.259.207-.459.03-.574-.178-.114-.03-.572-.03-.572L16 12.465l1.478 4.066H15.32c-.03.114 0 .258.118.343.178.144.562.315-.03.573-.59.258-.797.344-.886.401-.089.057-.148.2.03.23.177.028.148.2.088.371-.059.172-.147.401-.147.401v.029h3.842L19.458 22H22l-1.182-3.264-.03-.058Z" fill="#FFF" fill-rule="nonzero"/></g></svg>
